svg/u1f308.svg

<svg viewBox="0 0 128 128" xmlns="http://www.w3.org/2000/svg">
  <path d="M28.38,112.62l-5.79,11.64c0,0-11.2,0.25-11.84-0.17S2.77,77.84,36.09,41.11 C71.33,2.24,115.61,2.52,116.67,3.8c1.06,1.27,0.8,16.81,0.8,16.81L28.38,112.62z" fill="#FF5117"/>
  <path d="M70.78,28.21C48.9,40.58,32.38,59.3,24.73,88.59c-3.64,13.93-2.27,35.65-2.27,35.65h12.92 l38.43-56.42l43.66-40.92l0-11.96C117.47,14.94,91.35,16.57,70.78,28.21z" fill="#FF8E00"/>
  <path d="M44.02,74.92c-10.55,20.32-8.66,49.32-8.66,49.32l12.61-0.01l43.07-57.22l26.44-27.19l-0.02-12.91 c0,0-15.07-0.14-38.53,11.22C60.09,47.24,49.76,63.87,44.02,74.92z" fill="#F9D81E"/>
  <path d="M65.47,64.73c-21.87,27.33-17.73,59.5-17.73,59.5h14.03l23.96-43.47l31.75-26.33l-0.01-14.74 C117.47,39.69,85.01,40.3,65.47,64.73z" fill="#97CC37"/>
  <path d="M76.93,70.88c-21.82,20.95-16.97,53.35-16.97,53.35l11.26,0L88,82.17l29.48-15.43l-0.01-14.55 C117.47,52.19,98.18,50.49,76.93,70.88z" fill="#00C0E9"/>
  <path d="M117.03,74.72c0.67-1.05,0.45-12,0.45-12s-18.25-0.33-33.63,17c-15.35,17.3-13.14,44.51-13.14,44.51 s10.52,0.32,10.95-0.53c0.86-1.7-2.91-21.73,9.64-35.86C104.3,73.21,116.66,75.28,117.03,74.72z" fill="#8177FA"/>
</svg>

<svg viewBox="0 0 128 128" xmlns="http://www.w3.org/2000/svg">
  <defs/>
  <path d="M28.38,112.62 L22.59,124.26 C22.59,124.26 11.39,124.51 10.75,124.09 C10.11,123.67 2.77,77.84 36.09,41.11 C71.33,2.24 115.61,2.52 116.67,3.8 C117.73,5.07 117.47,20.61 117.47,20.61 L28.38,112.62 Z" fill="#FF5117"/>
  <path d="M70.78,28.21 C48.9,40.58 32.38,59.3 24.73,88.59 C21.09,102.52 22.46,124.24 22.46,124.24 L35.38,124.24 L73.81,67.82 L117.47,26.9 L117.47,14.94 C117.47,14.94 91.35,16.57 70.78,28.21 Z" fill="#FF8E00"/>
  <path d="M44.02,74.92 C33.47,95.24 35.36,124.24 35.36,124.24 L47.97,124.23 L91.04,67.01 L117.48,39.82 L117.46,26.91 C117.46,26.91 102.39,26.77 78.93,38.13 C60.09,47.24 49.76,63.87 44.02,74.92 Z" fill="#F9D81E"/>
  <path d="M65.47,64.73 C43.6,92.06 47.74,124.23 47.74,124.23 L61.77,124.23 L85.73,80.76 L117.48,54.43 L117.47,39.69 C117.47,39.69 85.01,40.3 65.47,64.73 Z" fill="#97CC37"/>
  <path d="M76.93,70.88 C55.11,91.83 59.96,124.23 59.96,124.23 L71.22,124.23 L88,82.17 L117.48,66.74 L117.47,52.19 C117.47,52.19 98.18,50.49 76.93,70.88 Z" fill="#00C0E9"/>
  <path d="M117.03,74.72 C117.7,73.67 117.48,62.72 117.48,62.72 C117.48,62.72 99.23,62.39 83.85,79.72 C68.5,97.02 70.71,124.23 70.71,124.23 C70.71,124.23 81.23,124.55 81.66,123.7 C82.52,122 78.75,101.97 91.3,87.84 C104.3,73.21 116.66,75.28 117.03,74.72 Z" fill="#8177FA"/>
</svg>
